X: 4455
T: Bonnie Kate
R: reel
M: 4/4
K: Gmajor
g>f g>f|g d d B|c/d/ e d>c|B G G A|
B G G A/B/|c A A2|B/c/ d c B|1 A:|2 A2 A2||
|:B G G A/B/|c A d B|e c c e|f>e d e/f/|
g> f g f/e/|d e/f/ g B|c/d/ e d c|1 B G G A:|2 B||

